src/logo.svg

<?xml version="1.0" encoding="UTF-8" standalone="no"?>
<svg
   xmlns:dc="http://purl.org/dc/elements/1.1/"
   xmlns:cc="http://creativecommons.org/ns#"
   xmlns:rdf="http://www.w3.org/1999/02/22-rdf-syntax-ns#"
   xmlns:svg="http://www.w3.org/2000/svg"
   xmlns="http://www.w3.org/2000/svg"
   xmlns:sodipodi="http://sodipodi.sourceforge.net/DTD/sodipodi-0.dtd"
   xmlns:inkscape="http://www.inkscape.org/namespaces/inkscape"
   height="300px"
   width="300px"
   fill="#000000"
   viewBox="0 0 64 64"
   x="0px"
   y="0px"
   version="1.1"
   id="svg12"
   sodipodi:docname="logo.svg"
   inkscape:version="0.92.4 5da689c313, 2019-01-14">
  <metadata
     id="metadata18">
    <rdf:RDF>
      <cc:Work
         rdf:about="">
        <dc:format>image/svg+xml</dc:format>
        <dc:type
           rdf:resource="http://purl.org/dc/dcmitype/StillImage" />
      </cc:Work>
    </rdf:RDF>
  </metadata>
  <defs
     id="defs16" />
  <sodipodi:namedview
     pagecolor="#ffffff"
     bordercolor="#666666"
     borderopacity="1"
     objecttolerance="10"
     gridtolerance="10"
     guidetolerance="10"
     inkscape:pageopacity="0"
     inkscape:pageshadow="2"
     inkscape:window-width="1920"
     inkscape:window-height="1035"
     id="namedview14"
     showgrid="false"
     inkscape:zoom="0.78666667"
     inkscape:cx="74.137365"
     inkscape:cy="242.66669"
     inkscape:window-x="0"
     inkscape:window-y="25"
     inkscape:window-maximized="1"
     inkscape:current-layer="svg12" />
  <path
     style="stroke:#ffffff;stroke-opacity:1"
     d="m 5,29 h 2.121 l 3.887,30.128 A 1,1 0 0 0 12,60 H 35.54 A 5.983,5.983 0 0 0 40,62 h 1.566 a 7.1,7.1 0 0 0 3.164,-0.747 5.1,5.1 0 0 1 4.54,0 A 7.1,7.1 0 0 0 52.434,62 H 54 a 6.006,6.006 0 0 0 6,-6 v -6 a 6.006,6.006 0 0 0 -6,-6 h -1.566 a 7.1,7.1 0 0 0 -3.164,0.747 5.1,5.1 0 0 1 -4.54,0 7.078,7.078 0 0 0 -1.8,-0.6 L 44.879,29 H 47 a 1,1 0 0 0 1,-1 V 24 A 1,1 0 0 0 47,23 H 43 V 20 A 1,1 0 0 0 42.707,19.293 L 38,14.586 V 11.48 l 1.516,-1.212 2.589,5.179 1.79,-0.894 L 41.113,8.99 42.35,8 H 46 A 1,1 0 0 0 47,7 V 3 A 1,1 0 0 0 46,2 H 36 a 9.011,9.011 0 0 0 -9,9 1,1 0 0 0 1,1 h 2 v 2.586 l -2.707,2.707 A 1,1 0 0 0 27,18 v 5 H 25 V 15 A 0.99,0.99 0 0 0 24.927,14.639 1.037,1.037 0 0 0 24.865,14.526 1.115,1.115 0 0 0 24.781,14.375 L 21,9.65 V 3 A 1,1 0 0 0 20,2 H 14 A 1,1 0 0 0 13,3 V 9.65 L 9.219,14.375 A 1.115,1.115 0 0 0 9.135,14.526 1.037,1.037 0 0 0 9.073,14.639 0.99,0.99 0 0 0 9,15 v 8 H 5 a 1,1 0 0 0 -1,1 v 4 a 1,1 0 0 0 1,1 z"
     id="path856" />
  <path
     style="stroke:#ffe40a;stroke-opacity:1;fill:#ffe40a;fill-opacity:1"
     d="m 54,60 h -1.566 a 5.1,5.1 0 0 1 -2.269,-0.536 7.113,7.113 0 0 0 -6.33,0 A 5.1,5.1 0 0 1 41.566,60 H 40 A 4,4 0 0 1 36,56 V 54.46 A 5.969,5.969 0 0 0 40,56 h 1.566 a 7.1,7.1 0 0 0 3.164,-0.747 5.1,5.1 0 0 1 4.54,0 A 7.1,7.1 0 0 0 52.434,56 H 54 a 5.969,5.969 0 0 0 4,-1.54 V 56 a 4,4 0 0 1 -4,4 z"
     id="path854" />
  <path
     style="stroke:#ffe40a;stroke-opacity:1;fill:#ffe40a;fill-opacity:1"
     d="M 50.165,46.536 A 5.1,5.1 0 0 1 52.434,46 H 54 a 4,4 0 0 1 0,8 h -1.566 a 5.1,5.1 0 0 1 -2.269,-0.536 7.113,7.113 0 0 0 -6.33,0 A 5.1,5.1 0 0 1 41.566,54 H 40 a 4,4 0 0 1 0,-8 h 1.566 a 5.1,5.1 0 0 1 2.269,0.536 7.117,7.117 0 0 0 6.33,0 z"
     id="path852" />
  <path
     style="stroke:#ffffff;stroke-opacity:1;fill:#ffffff;fill-opacity:1"
     d="m 28,25 h 2 v 7 a 1,1 0 0 0 0.553,0.9 l 6,3 a 1.208,1.208 0 0 1 0.615,0.711 1.286,1.286 0 0 1 -0.1,1 1.168,1.168 0 0 1 -1.569,0.523 l -4.06,-2.03 A 1,1 0 0 0 30,37 v 10 a 2,2 0 0 1 -2,2 v -9 h -2 v 9 h -2 v -9 h -2 v 9 h -2 v -9 h -2 v 9 A 2,2 0 0 1 16,47 V 25 Z"
     id="path848" />
  <path
     style="stroke:#ab8dff;stroke-opacity:1;fill:#ab8dff;fill-opacity:1"
     d="M 45,6 H 43 V 4 h 2 z"
     id="path844" />
  <path
     style="stroke:#ab8dff;stroke-opacity:1;fill:#ab8dff;fill-opacity:1"
     d="m 36,4 h 5 V 6.52 L 36.649,10 H 29.071 A 7.011,7.011 0 0 1 36,4 Z"
     id="path842" />
  <path
     style="stroke:#ab8dff;stroke-opacity:1;fill:#ab8dff;fill-opacity:1"
     d="m 36,12 v 2 h -4 v -2 z"
     id="path840" />
  <path
     style="stroke:#ab8dff;stroke-opacity:1;fill:#ab8dff;fill-opacity:1"
     d="M 29,18.414 31.414,16 h 5.172 L 41,20.414 V 23 H 29 Z"
     id="path838" />
  <path
     style="stroke:#00d31a;stroke-opacity:1;fill:#00d31a;fill-opacity:1"
     d="m 14.48,11 h 5.04 l 2.4,3 h -9.84 z"
     id="path836" />
  <path
     style="stroke:#00d31a;stroke-opacity:1;fill:#00d31a;fill-opacity:1"
     d="m 15,4 h 4 v 5 h -4 z"
     id="path834" />
  <path
     style="stroke:#00d31a;stroke-opacity:1;fill:#00d31a;fill-opacity:1"
     d="m 11,16 h 12 v 7 H 11 Z"
     id="path832" />
</svg>

<svg height='300px' width='300px'  fill="#000000" xmlns="http://www.w3.org/2000/svg" viewBox="0 0 64 64" x="0px" y="0px"><path d="M5,29H7.121l3.887,30.128A1,1,0,0,0,12,60H35.54A5.983,5.983,0,0,0,40,62h1.566a7.1,7.1,0,0,0,3.164-.747,5.1,5.1,0,0,1,4.54,0A7.1,7.1,0,0,0,52.434,62H54a6.006,6.006,0,0,0,6-6V50a6.006,6.006,0,0,0-6-6H52.434a7.1,7.1,0,0,0-3.164.747,5.1,5.1,0,0,1-4.54,0,7.078,7.078,0,0,0-1.8-.6L44.879,29H47a1,1,0,0,0,1-1V24a1,1,0,0,0-1-1H43V20a1,1,0,0,0-.293-.707L38,14.586V11.48l1.516-1.212,2.589,5.179,1.79-.894L41.113,8.99,42.35,8H46a1,1,0,0,0,1-1V3a1,1,0,0,0-1-1H36a9.011,9.011,0,0,0-9,9,1,1,0,0,0,1,1h2v2.586l-2.707,2.707A1,1,0,0,0,27,18v5H25V15a.99.99,0,0,0-.073-.361,1.037,1.037,0,0,0-.062-.113,1.115,1.115,0,0,0-.084-.151L21,9.65V3a1,1,0,0,0-1-1H14a1,1,0,0,0-1,1V9.65L9.219,14.375a1.115,1.115,0,0,0-.084.151,1.037,1.037,0,0,0-.062.113A.99.99,0,0,0,9,15v8H5a1,1,0,0,0-1,1v4A1,1,0,0,0,5,29ZM54,60H52.434a5.1,5.1,0,0,1-2.269-.536,7.113,7.113,0,0,0-6.33,0A5.1,5.1,0,0,1,41.566,60H40a4,4,0,0,1-4-4V54.46A5.969,5.969,0,0,0,40,56h1.566a7.1,7.1,0,0,0,3.164-.747,5.1,5.1,0,0,1,4.54,0A7.1,7.1,0,0,0,52.434,56H54a5.969,5.969,0,0,0,4-1.54V56A4,4,0,0,1,54,60ZM50.165,46.536A5.1,5.1,0,0,1,52.434,46H54a4,4,0,0,1,0,8H52.434a5.1,5.1,0,0,1-2.269-.536,7.113,7.113,0,0,0-6.33,0A5.1,5.1,0,0,1,41.566,54H40a4,4,0,0,1,0-8h1.566a5.1,5.1,0,0,1,2.269.536A7.117,7.117,0,0,0,50.165,46.536ZM40.927,44H40a6.006,6.006,0,0,0-6,6v6a5.976,5.976,0,0,0,.35,2H12.879L9.137,29H14V47a4,4,0,0,0,4,4H28a4,4,0,0,0,4-4V38.618l2.612,1.306a3.187,3.187,0,0,0,4.278-1.467,3.237,3.237,0,0,0,.183-2.475,3.2,3.2,0,0,0-1.62-1.874L32,31.382V29H42.863ZM28,25h2v7a1,1,0,0,0,.553.9l6,3a1.208,1.208,0,0,1,.615.711,1.286,1.286,0,0,1-.1,1,1.168,1.168,0,0,1-1.569.523l-4.06-2.03A1,1,0,0,0,30,37V47a2,2,0,0,1-2,2V40H26v9H24V40H22v9H20V40H18v9a2,2,0,0,1-2-2V25H28Zm18,2H32V25H46ZM45,6H43V4h2ZM36,4h5V6.52L36.649,10H29.071A7.011,7.011,0,0,1,36,4Zm0,8v2H32V12Zm-7,6.414L31.414,16h5.172L41,20.414V23H29ZM14.48,11h5.04l2.4,3H12.08ZM15,4h4V9H15ZM11,16H23v7H11ZM6,25h8v2H6Z"></path><rect x="53" y="48" width="2" height="2"></rect><rect x="43" y="48" width="2" height="2"></rect><rect x="39" y="49" width="2" height="2"></rect><rect x="49" y="49" width="2" height="2"></rect></svg>
